X:353
T:Craic of Dawn, The
M:C|
C:© Paul Gitlitz, 2013
K:D
"D"fa2f "Em"e>dBd|"D"fa2f "Em"e2de|"D"fa2f "Em"e>dBA|"A7"FAB"D"d- d d2e|!
"D"fa2f "Em"e>dBd|"D"fa2f "Em"e2de|"D"fa2f "Em"e>dBA|"A7"FAB"D"d- d D2D:|!
"D"FDAD FDEF|"Em"GEBE GABc|"Bm"dAfA eAdA|"A7"BAc"D"d- dD2D|!
"D"FDAD FDdc|"G"BGdG BGBd|"A"cAeA cABc|"D"dfed- d D2D|!
"D"(3FFF AF dcBA|"Em"(3GGG BG edcB|"A"(3ccc ec agfe|"D"defd "A"BAGE|!
"D"(3FFF AF dcBA|"Em"(3GGG BG edcB|"A"(3AAA eA gecA|"D"dfed- d4|]
